X: 0902
M: 4/4
L: 1/8
K: F
c2 |\
f>ef>g a2g>f | d<f d<f c<A F<A | B<d B<d c<A F<A | G2G2 G2z2 |\
f>ef>g a2g>f | d<f d<f c<A F<A | B<d B<d c<b g<e | f2f2 f2 :|
|: FG |\

